X: 25104
T: Maire Fielding's Welcome To County Clare
R: jig
M: 6/8
K: Emajor
gec BGB|cAc BGB|gfe Beg|gfe fba|
gec BGB|cAc BGB|cec Bba|1 ged e2f:|2 ged e2 c||
BGE EGB|egf e2d|cAc Beg|gfe fec|
BGE EGB|egf e2d|cAc Bba|1 ged edc:|2 ged e3||

